!!!!SEGMENT: 058-1-BH-003.krn
!!!COM: Chopin, Fryderyk
!!!OTL: Sonate b-minor
!!!OPS: Op. 58
!!!PTL: SONATE | pour le Piano
!!!OMV: 3
!!!PPR: Breitkopf & Härtel
!!!PPP: Leipzig
!!!NIFC-rismID: 1001024762
!!!NIFC-shelfmark: PL-Wbfc 685/n
**kern	**kern	**dynam
*part1	*part1	*part1
*staff2	*staff1	*
*clefF4	*clefG2	*
*kcancel	*kcancel	*
*k[f#c#g#d#a#]	*k[f#c#g#d#a#]	*
*B:	*B:	*
*M4/4	*M4/4	*
*	*I"Largo.	*
*met(c)	*met(c)	*
=1	=1	=1
!	!LO:S:s=1:note:problem:note-level slur	!LO:DY:rj
32DD#\	(>32d# 32D#<	ff
8..C#\L 8..CC#\	8..c#L)	.
!	!LO:S:s=1:note:problem:note-level slur	!
32DD#Jkk	(>32d#Jkk 32D#<	.
!	!LO:S:s=1:note:problem:note-level slur	!
8..BB\L 8..BBB\	8..B<L)	.
32DD#Jkk	(>32d#Jkk 32D#<	.
8..AA#\L 8..AAA#\	8..A#<L	.
32BBBJkk	32B<Jkk 32BB<	.
=2	=2	=2
8..GG#\L 8..GGG#\	8..G#<L	<
32EEJkk	32eJkk 32E<	.
2.EE\	[>2.e 2.E<)	.
.	.	[
=3	=3	=3
!	!	!LO:DY:rj
2GGn 2GGGn	(>4e] 4cn 4Gn<	p
.	8.dnL 8.G< 8.Fn<	.
.	.	<
.	16cJk 16G< 16E<	.
4Dn 4GG	4fn 4B<	.
!	!LO:TX:a:i:t=cantabile	!
8.D#XL 8.FF#X	8.f#XL 8.B<	.
16EJk 16FF#	16a#Jk 16A#<	.
.	.	[
=4	=4	=4
*^	*	*
2FF#	4rGGG	2cc# 2e 2A#<	>
.	4FFF#	.	.
4rFyy	4FF# 4BBB	4b) 4d# 4B<	]
4r	4rAAAyy	(>8.f#L	<
.	.	16dd#Jk	.
*v	*v	*	*
=5	=5	=5
*ped	*	*
!	!LO:TX:a:B:t=Cantabile	!
8BBB'	2dd#	.
16r	.	.
(>16d#KL 16B 16F#	.	[
8d#J 8B 8F#)	.	.
*Xped	*	*
16r	.	.
(<16FF#KL	.	.
*ped	*	*
8BBB'J)	8.bL	.
16r	.	.
(>16d#KL 16B 16F#	16cc#k	.
8d#J 8B 8F#)	8.dd#	.
*Xped	*	*
16r	.	.
!LO:TX:t=P:cross-measure beam:problem	!	!
(<16FF#	16eeJk	.
!!LO:LB:g=original
=6	=6	=6
*ped	*	*
8AAA#')	4dd#	.
16r	.	.
16eKL 16c# 16F#	.	.
8eJ 8c# 8F#	8.cc#L)	.
16r	.	.
*Xped	*	*
16FF#KL	(>16dd#Jk	.
*ped	*	*
8CC#'J	8eeL	.
!	!LO:TX:a:t=P:note-head-side tuplet number:problem	!
16r	24ff#L	.
.	24ee	.
(>16eKL 16A# 16F#	.	.
.	24dd#JJ	.
*Xped	*	*
8eJ 8A# 8F#)	8.eeL	.
16r	.	.
!LO:TX:t=P:cross-measure beam:problem	!	!
(<16FF#	16ff#Jk	.
=7	=7	=7
*ped	*	*
8BBB')	2dd#	.
16r	.	.
(>16d#KL 16B 16F#	.	.
8d#J 8B 8F#)	.	.
*Xped	*	*
.	.	.
16r	.	.
*ped	*	*
(<16EE#XKL	.	.
8AAA#'J)	4cc#	.
16r	.	.
*Xped	*	*
(>16c#KL 16A# 16E#X	.	.
8c#J 8F##X 8D#)	8.dd#L	.
16r	.	.
!LO:TX:t=P:cross-measure beam:problem	!	!
(<16DD#	16a#Jk	.
=8	=8	=8
*ped	*	*
8GGG#')	4b	.
16r	.	.
(>16BKL 16F# 16Dn	.	.
*Xped	*	*
8BJ 8E#X 8C#)	8.a#/L	.
16r	.	.
(<16CC#KL	16bJk	.
*ped	*	*
8FFF#'J)	4cc#	.
16r	.	.
*Xped	*	*
.	.	.
16eKL 16B 16Gn	.	.
*ped	*	*
8eJ 8A# 8F#	8.f#/L	<
16r	.	.
*Xped	*	*
!LO:TX:t=P:cross-measure beam:problem	!	!
(<16FF#	16dd#Jk	.
=9	=9	=9
*ped	*	*
8BBB')	2dd#	.
16r	.	.
(>16d#KL 16B 16F#	.	.
.	.	[
8d#J 8B 8F#)	.	.
16r	.	.
*Xped	*	*
.	.	.
(<16FF#KL	.	.
*ped	*	*
8BBB'J)	8.bL	.
16r	.	.
(>16d#KL 16B 16F#	16cc#k	.
8d#J 8B 8F#)	8.dd#	.
16r	.	.
.	8qff#/	.
*Xped	*	*
!LO:TX:t=P:cross-measure beam:problem	!	!
(<16FF#	16eeJk	.
!!LO:LB:g=original
=10	=10	=10
*ped	*	*
8AAA#')	4dd#	.
16r	.	.
(>16eKL 16c# 16F#	.	.
8eJ 8c# 8F#)	8.cc#L	.
16r	.	.
*Xped	*	*
.	.	.
(<16FF#KL	16dd#Jk	.
*ped	*	*
8CC#'J)	8eeL	.
!	!LO:TX:a:t=P:note-head-side tuplet number:problem	!
16r	24ff#L	.
.	24ee	.
16eKL 16A# 16F#	.	.
.	24dd#JJ	.
8eJ 8A# 8F#	8.eeL	.
16r	.	.
*Xped	*	*
!LO:TX:t=P:cross-measure beam:problem	!	!
(<16FF#	16ff#Jk	.
=11	=11	=11
*ped	*	*
8BBB#X')	[2dd#	<
16r	.	.
16f#KL 16d# 16G#	.	.
8f#J 8d# 8G#	.	.
*Xped	*	*
16r	.	.
(<16BBB#KL	.	.
*ped	*	*
8CC#J)	16dd#LL]	[f
.	16cc#	.
16r	16ff#	.
16f#KL 16c# 16A#	16gg#JJ	.
8f#J 8c# 8A#	16bbLL	.
.	16aa#	.
16r	16ff#	.
*Xped	*	*
!LO:TX:t=P:cross-measure beam:problem	!	!
(<16CCC#	16dd#JJ	.
=12	=12	=12
*ped	*	*
8CC#')	2b	>
16r	.	.
(16e#XKL 16c# 16G#	.	.
8e#J 8c# 8G#)	.	.
16r	.	.
*Xped	*	*
.	.	.
(<16CC#KL	.	.
*ped	*	*
8FF#'J)	2a#/)	.
16r	.	.
(>16f#KL 16c# 16A#	.	.
8f#J 8c# 8A#)	.	.
16r	.	.
*Xped	*	*
!LO:TX:t=P:cross-measure beam:problem	!	!
(<16FFF#	.	]
=13	=13	=13
*ped	*	*
8FF#')	(>4g#	p
16r	.	.
(16d#KL 16B#X 16G# 16F#	.	.
8d#J 8B# 8G# 8F#)	[4gg#	]
16r	.	.
*Xped	*	*
.	.	.
(<16FF#KL	.	.
*ped	*	*
8EE'J)	8.gg#L]	.
16r	.	.
16eKL 16c# 16G# 16E	16cc#k	<
*Xped	*	*
8eJ 8c# 8G# 8E	8.dd#	.
16r	.	[[
!LO:TX:t=P:cross-measure beam:problem	!	!
(<16EE	16eeJk	.
!!LO:LB:g=original
=14	=14	=14
*ped	*	*
8DD#')	8.ff#L	.
16r	.	.
16f#KL 16B#X 16G# 16D#	16b#Xk	.
*Xped	*	*
8f#J 8B# 8G# 8D#	8.cc#	.
16r	.	.
(<16DD#KL	16dd#Jk	.
*ped	*	*
8CC#'J)	4ee	.
16r	.	.
16eKL 16Bn 16E	.	.
*Xped	*	*
8eJ 8B 8E	4gn	>
16r	.	.
!LO:TX:t=P:cross-measure beam:problem	!	!
(<16DD#	.	.
=15	=15	=15
*ped	*	*
8EE')	4f#	]
16r	.	.
(>16c#KL 16A# 16F# 16E	.	.
8c#J 8A# 8F# 8E)	[4ff#	.
16r	.	.
*Xped	*	*
.	.	.
!	!LO:TX:t=cresc: _:problem:dynamics with extention lines 	!LO:HP:i:t=cresc&colon;
(<16EEKL	.	<
*ped	*	*
8DD#'J)	8.ff#L]	.
.	.	.
16r	.	.
(>16f#KL 16B 16F# 16D#	16bk	.
*Xped	*	*
8f#J 8B 8F# 8D#)	8.cc#	.
16r	.	.
!LO:TX:t=P:cross-measure beam:problem	!	!
(<16DD#	16dd#Jk	.
=16	=16	=16
*ped	*	*
8CC#')	8.ee\L	.
16r	.	.
16f##XKL 16e 16A# 16F##X	16a#k	.
*Xped	*	*
8f##J 8e 8A# 8F##	8.b	.
16r	.	.
(<16CC#KL	16cc#Jk	.
*ped	*	*
8BBB'J)	4dd#	.
16r	.	.
16g#KL 16d# 16G#	.	.
!	!LO:TX:t=P:diminuendolike accent:problem	!
8d#J 8G#	4g#)	[
16r	.	>
*Xped	*	*
!LO:TX:t=P:cross-measure beam:problem	!	!
16BBB'	.	.
=17	=17	=17
*	*^	*
!	!	!LO:TX:t=P:vertical slur from 4f# to 2dd#:problem	!
*ped	*	*	*
8BBB'	(>2dd#	4f#	pp
16r	.	.	.
(>16d#KL 16B 16F#	.	.	.
8d#J 8B 8F#)	.	4g#	.
16r	.	.	.
16BBB'KL	.	.	.
!	!	!LO:TX:t=P:vertical slur from 2f# to 8.b:problem	!
8BBB'J	8.bL	2f#	.
16r	.	.	.
(>16d#KL 16B 16F#	16cc#k	.	.
8d#J 8B 8F#)	8.dd#	.	.
16r	.	.	.
!LO:TX:t=P:cross-measure beam:problem	!	!	!
16BBB'	16eeJk	.	.
!!LO:LB:g=original
=18	=18	=18	=18
*ped	*	*	*
8BBB'	4dd#	4f#	.
16r	.	.	.
(>16eKL 16A# 16F#	.	.	.
8eJ 8A# 8F#)	8.cc#L	4g#	.
16r	.	.	.
16BBBKL	16dd#Jk	.	.
*ped	*	*	*
8BBBJ	8eeL	4f#	.
!	!LO:TX:a:t=P:note-head-side tuplet number:problem	!	!
16r	24ff#L	.	.
.	24ee	.	.
(>16eKL 16A# 16F#	.	.	.
.	24dd#JJ	.	.
*Xped	*	*	*
8eJ 8A# 8F#)	8.eeL	4g#	.
16r	.	.	.
!LO:TX:t=P:cross-measure beam:problem	!	!	!
16BBB'	16ff#Jk	.	.
=19	=19	=19	=19
*ped	*	*	*
8BBB'	2ryy	2dd#\ 2an\ 2d#\)	.
8r	.	.	.
*Xped	*	*	*
4r	.	.	.
*ped	*	*	*
!LO:TX:t=P:vertical slur from 4.EE to 4.B:problem	!LO:TX:t=P:vertical slur from 4.E to 8dd#:problem	!	!
4.B/ 4.E/ 4.BB/ 4.EE/	(>8dd#L	4.g# 4.e	<
.	8cc#	.	.
.	8.b	.	.
*Xped	*	*	*
.	.	.	.
8ryy	.	8ryy	.
*	*ped	*	*
.	16bbJk	.	[[
*	*v	*v	*
=20	=20	=20
4rGG	4bb/)	.
!	!	!LO:HP:a
2EE	(>2c# 2B 2G#<	>
*	*Xped	*
.	.	.
4FF#	4d# 4B 4F#<	]
=21	=21	=21
4.B 4.E 4.GG#	8.B<L	.
.	16eJk	.
.	8e)	.
8r	8r	.
2r	(>8dd#L	<
.	8cc#	.
.	8.b	.
*	*ped	*
.	16bbJk	.
.	.	[
=22	=22	=22
4r	4bb)	.
!	!LO:TX:t=P:diminuendolike accent:problem	!
2E\ 2GG#\	(>2e 2B	.
*	*Xped	*
.	.	.
4FF#\	4f# 4dn 4B 4F#<	.
=23	=23	=23
*	*^	*
4EE\	4g#) 4dn 4B< 4G#<	2.rDyy	[
4r	(>\4gg#	.	.
4r	4g#/)	.	.
*ped	*	*	*
4c# [>4E	4a#t	4f##X	.
.	16qqg##X/LL	.	.
.	16qqa#/JJ	.	.
!!LO:LB:g=original
=24	=24	=24	=24
*Xped	*	*	*
4dn 4E]	4b	4g#X	.
4rD	(</4ee	2ryy	.
4rD	4e)	.	.
*ped	*	*	*
[>4A# 4E	4f##Xt	4c#\	.
.	16qqf#X/LL	.	.
.	16qqf##X/JJ	.	.
=25	=25	=25	=25
*^	*	*	*
4A#]	4E]	2.g#	2c##X	.
4B	(<4EE/	.	.	.
2rAyy	4DD#/	.	4d# 4B#X	<
.	4DDn/	4g# 4e 4G#<	4rBByy	.
*v	*v	*	*	*
=26	=26	=26	=26
2CC#	4g#	2e#X 2B	.
.	8.a#L	.	.
.	16bJk	.	.
*ped	*	*	*
.	.	.	.
!	!LO:TX:a:t=P:vertical slur from 4A# to 4dd#:problem	!	!
2FFF#	4dd#/ 4g#/ 4en/ 4A#X/	2rDyy	.
.	4cc# 4a# 4f# 4e	.	[[
*Xped	*	*	*
.	.	.	.
=27	=27	=27	=27
*ped	*	*	*
!LO:TX:t=P:note-head-side tuplet number:problem	!	!	!
!LO:TX:t=P:mixed beam:problem	!	!	!
(>12BBB'>/L)	1b	2d#	>
12c#\	.	.	.
12B\	.	.	.
*Xped	*	*	*
12F#\	.	.	.
12B\	.	.	.
12G#\J	.	.	.
*Xtuplet	*	*	*
12AnL	.	4.e 4.c#	.
12B	.	.	.
12A	.	.	.
12C#	.	.	]
12F#	.	.	.
.	.	8f# 8B	.
12D#J	.	.	.
*	*v	*v	*
=28	=28	=28
12E/L	2b 2g# 2e 2B	[
12F#	.	.
12E	.	.
12BB	.	.
12C#	.	.
12GG#J	.	.
12BB/L	2b 2a 2d# 2B	.
12C#	.	.
12EE#X	.	.
12FF#	.	.
12GG#	.	.
12BBBJ	.	.
!!LO:PB:g=original
=29||	=29||	=29||
*	*Xtuplet	*
*k[f#c#g#d#]	*k[f#c#g#d#]	*
*	*^	*
*	*	*^	*
!	!LO:TX:t=P:wrong display of some notes in m.29-35, 45-46, 59-64 LO:N:vis doesn't work:problem	!LO:TX:i:a:t=sostenuto	!LO:N:vis=3	!
1BB 1EE	12ryy	2b	(>12b\L	.
!	!LO:N:vis=6.	!	!	!
.	6g#/	.	12g#\	.
.	.	.	12f#\	.
!	!LO:N:vis=6	!	!	!
.	12e/	.	12e\	.
.	6B/	.	12B\	.
.	.	.	12g#\J	.
!	!	!	!LO:N:vis=3	!
.	12ryy	2b	12b\L	.
!	!LO:N:vis=6.	!	!	!
.	6g#/	.	12g#\	.
.	.	.	12f#\	.
!	!LO:N:vis=6	!	!	!
.	12e/	.	12e\	.
*ped	*	*	*	*
.	6B/	.	12B\	.
.	.	.	12g#\J	.
=30	=30	=30	=30	=30
!	!	!	!LO:N:vis=3	!LO:HP:b=2
4.G#	12ryy	2b\	12b\L	>
!	!LO:N:vis=6.	!	!	!
.	6g#/	.	12g#\	.
.	.	.	12f#\	.
.	4e/	.	12e\	.
*Xped	*	*	*	*
.	.	.	.	.
.	.	.	12B\	.
8F#	.	.	.	.
.	.	.	12g#\J	.
!	!	!	!LO:N:vis=3	!
2E/) 2AA/	12ryy	2cc#	12cc#\L	.
!	!LO:N:vis=6.	!	!	!
.	6g#/	.	12g#\	]
.	.	.	12f#\	.
.	4e/	.	12e\	.
.	.	.	12c#\	.
.	.	.	[<12a\J	.
=31	=31	=31	=31	=31
2E/ 2EE/	12ryy	4b/	12a\L]	.
!	!LO:N:vis=6.	!	!	!
.	6g#/	.	12g#\	.
.	.	.	12f#\	.
!	!LO:N:vis=6	!	!	!
.	12e/	4e	12e\	.
.	6B/	.	12B\	.
.	.	.	(>12g#\J)	.
!	!	!	!LO:N:vis=3	!
*ped	*	*	*	*
!LO:TX:t=P:vertical slur from 2CC# to 2E:problem	!	!	!	!
[>/2E [<2GG#/ [<2CC#/	12ryy	2g#	12g#\L	.
!	!LO:N:vis=6.	!	!	!
.	6e/	.	12e\	.
.	.	.	12d#\	.
!	!LO:N:vis=6	!	!	!
.	12c#/	.	12c#\	.
.	6G#/	.	12G#\	.
.	.	.	12e\J	.
*	*	*v	*v	*
=32	=32	=32	=32
!	!	!LO:N:vis=6	!
2E/] 2GG#/] 2CC#/]	12g#\L>	12g#	.
!	!	!LO:N:vis=6.	!
.	12e	6e\	.
*Xped	*	*	*
.	12d#\	.	.
!	!	!LO:N:vis=6	!
.	12c#\	12c#	.
!	!	!LO:N:vis=6	!
.	12G#<\	6G#<\	.
.	12e\J	.	.
!LO:TX:t=P:vertical slur from 2AAA to 2E:problem	!	!LO:N:vis=6.	!
*ped	*	*	*
2E/ 2AA/ 2AAA/	12e\L	12e	.
.	12c#/	6c#	.
.	12B\	.	.
!	!	!LO:N:vis=6	!
.	12A<\	12A<\	.
*Xped	*	*	*
!	!	!LO:N:vis=6	!
.	12E<\	6E<\	.
.	12c#\J)	.	.
=33	=33	=33	=33
*^	*	*	*
!	!	!	!LO:N:vis=3	!LO:HP:a
1BB 1EE	12rAyy	2e	(>12e/L	<
!	!LO:N:vis=6.	!	!	!
.	6B\	.	12B<	.
!	!	!	!LO:N:vis=12.	!
.	.	.	12A<	.
!	!LO:N:vis=6	!	!	!
.	12G#\	.	12G#<	.
.	4E\	.	12E<	.
.	.	.	12B<J	.
!	!	!	!LO:N:vis=3	!
.	.	2d#	12d#/L	.
.	6B\	.	12B<	.
.	.	.	12A<	.
!	!LO:N:vis=6	!	!	!
.	12G#\	.	12G#<	.
!	!LO:N:vis=6	!	!	!
.	6E\	.	12E<	.
.	.	.	12B<J	.
!!LO:LB:g=original
=34	=34	=34	=34	=34
!	!	!	!LO:N:vis=3	!
1EE^> 1EEE	12rAyy	2c#	12c#/L	.
!	!LO:N:vis=6.	!	!	!
.	6A\	.	12A<	.
.	.	.	12G#<	.
!	!LO:N:vis=6	!	!	!
.	12F#\	.	12F#<	.
.	4D#\	.	12D#<	.
.	.	.	12A<J	.
!	!	!	!LO:N:vis=3	!
.	.	2B<	12B</L	.
!	!LO:N:vis=6.	!	!	!
.	6G#\	.	12G#<	.
.	.	.	12F#<	.
!	!LO:N:vis=6	!	!	!
.	12E\	.	12E<	.
!	!LO:N:vis=6	!	!	!
.	6Dn\	.	12Dn<	.
.	.	.	12G#<J)	.
=35	=35	=35	=35	=35
!	!	!LO:N:vis=3	!	!
[>1EE [<1EEE	12ryy	12B</L	(>2B</	.
.	6G#	12G#<	.	.
.	.	12F#<	.	.
!	!LO:N:vis=6	!	!	!
.	12E	12E<	.	[
.	4C#	12C#<	.	.
.	.	12G#<J	.	.
!	!	!LO:N:vis=3	!	!
.	.	12A</L	2A</	.
!	!LO:N:vis=6.	!	!	!
.	6F#	12F#<	.	.
.	.	12E<	.	.
!	!LO:N:vis=6	!	!	!
.	12D#	12D#<X	.	.
!	!LO:N:vis=6	!	!	!
.	6Cn	12Cn<	.	]
.	.	12F#<J	.	.
*	*	*v	*v	*
*v	*v	*	*
=36	=36	=36
2EE\] 2EEE\]	12G#<L	>
.	12BB<	.
.	12E<	.
.	12G#<	.
.	12A<	.
.	12c#<J	]
*ped	*	*
2r	12BL	.
.	12e	.
.	12g#	.
.	12b	.
.	12bb	.
*Xped	*	*
.	12cc#J	.
=37	=37	=37
4.f# 4.B	4.dd# 4.a	>
8c# 8B	8gg# 8a	.
4d# 4B	4ff#) 4a	.
4r	4r	]
*ped	*	*
=38	=38	=38
N(>12EE\L	2ryy	.
12BB	.	.
12E	.	.
12G#J	.	.
*Xped	*	*
12A/L	.	.
12c#J	.	.
*ped	*	*
2rBByy	12BL	.
.	12e	.
.	12g#	.
.	12b	.
.	12bb	.
*Xped	*	*
.	12cc#JN)	.
!!LO:LB:g=original
=39	=39	=39
4.B 4.D#	(>4.dd#\ 4.g#\	<
8A#X 8D#	8ee\ \8f##X	.
2c# 2D#	2dd#\) 2a#y\	.
.	.	[
=40	=40	=40
*ped	*	*
N(>12GG#\L	2ryy	.
12D#\	.	.
12G#\	.	.
12A#X\J	.	.
*Xped	*	*
.	.	.
12B/L	.	.
12e>/J	.	.
*ped	*	*
2ryy	12d#L	.
.	12g#	.
.	12b	.
.	12dd#	.
.	12gg#	.
*Xped	*	*
.	12g#JN)	.
=41	=41	=41
*^	*^	*
1GG#	12EL	(>2g#	4c#	.
.	12F#	.	.	.
.	12E	.	.	.
!	!LO:N:vis=3	!	!L	!
.	12B>	.	2.B/	.
.	12G#	.	.	.
.	12C#J	.	.	.
.	2D#/	4.g#	.	.
.	.	.	.	.
.	.	8a#X)	.	.
=42	=42	=42	=42	=42
[<1GG#	12EL	(>2g#	\4c#	.
.	12F#	.	.	.
.	12E	.	.	.
!	!LO:N:vis=3	!	!	!
.	12B>	.	2.B/	.
.	12G#	.	.	.
.	12C#J	.	.	.
.	[>2D#/	4.g#	.	.
.	.	.	.	.
.	.	8a#X)	.	.
*v	*v	*	*	*
=43	=43	=43	=43
*	*	*^	*
!	!	!	!LO:N:vis=3	!
2D#/] 2GG#/]	2b/	6rccccyy	(>12b\L	.
.	.	.	12a#X\	.
!	!	!LO:N:vis=6.	!	!
.	.	12g#/	12g#\	.
!	!	!LO:N:vis=6	!	!
.	.	12d#/	12d#\	.
.	.	4B/	12B\	.
.	.	.	12g#\J	.
!	!	!	!LO:N:vis=3	!
2D#/ 2DD#/	2b\	.	12b\L	.
.	.	12ryy	12a#\	.
!	!	!LO:N:vis=6.	!	!
.	.	12g#/	12g#\	.
!	!	!LO:N:vis=6	!	!
.	.	12d#/	12d#\	.
!	!	!LO:N:vis=6	!	!
.	.	6B/	12B\	.
.	.	.	12g#\J	.
*	*v	*v	*v	*
=44	=44	=44
2D#/ 2GG#/	12b/L	>
.	12g#	.
.	12ee	.
.	12dd#	.
.	12b	.
.	12g#J	.
2r	12c#L	.
.	12d#	.
.	12A#<X	.
.	12B<	.
.	12G#<	.
.	12g#J	]
!!LO:LB:g=original
=45	=45	=45
*	*^	*
*	*	*^	*
!	!	!	!LO:N:vis=3	!
(>1BB 1EE	12rbbbyy	2b	12b\L	[
!	!LO:N:vis=6.	!	!	!
.	6g#/	.	12g#\	.
.	.	.	12f#\	.
!	!LO:N:vis=6	!	!	!
.	12e/	.	12e\	.
.	4B/	.	12B\	.
.	.	.	12g#\J	.
!	!	!	!LO:N:vis=3	!
.	.	2b	12b\L	.
!	!LO:N:vis=6.	!	!	!
.	6g#/	.	12g#\	.
.	.	.	12f#\	.
!	!LO:N:vis=6	!	!	!
.	12e/	.	12e\	.
.	6B/	.	12B\	.
*ped	*	*	*	*
.	.	.	12g#\J	.
=46	=46	=46	=46	=46
!	!	!	!LO:N:vis=3	!LO:HP:b=2
4.G#	12rbbbyy	2b	12b\L	>
!	!LO:N:vis=6.	!	!	!
.	6g#/	.	12g#\	.
.	.	.	12f#\	.
!	!LO:N:vis=6	!	!	!
.	12e/	.	12e\	.
.	.	.	.	.
.	4B/	.	12B\	.
8F#	.	.	.	.
*Xped	*	*	*	*
.	.	.	12g#\J	.
!	!	!	!LO:N:vis=3	!
2E/) 2AA/	.	2b	12b\L	.
!	!LO:N:vis=6.	!	!	!
.	6g#/	.	12g#\	.
.	.	.	12f#\	]
!	!LO:N:vis=6	!	!	!
.	12e/	.	12e\	.
.	6c#/	.	12c#\	.
.	.	.	[<12a\J	.
=47	=47	=47	=47	=47
2E/ 2EE/	4b	12aL]	12rdyy	.
!	!	!	!LO:N:vis=6.	!
.	.	12g#	6g#/	.
.	.	12f#	.	.
!	!	!	!LO:N:vis=6	!
.	4raaayy	12e	12e/	.
.	.	12B	6B/	.
.	.	(>12g#J)	.	.
*ped	*	*	*	*
!LO:TX:t=P:vertical slur from 2CC# to 2E:problem	!	!LO:N:vis=3	!	!
[>2E/ [<2GG#/ [<2CC#/	2g#\	12g#L	12ryy	.
!	!	!	!LO:N:vis=6.	!
.	.	12e	6e/	.
.	.	12d#	.	.
!	!	!	!LO:N:vis=6	!
.	.	12c#	12c#/	.
.	.	12G#	6G#/	.
.	.	12eJ	.	.
*	*	*v	*v	*
=48	=48	=48	=48
!	!	!LO:N:vis=6	!
2E/] 2GG#/] 2CC#/]	12g#L	12g#	.
!	!	!LO:N:vis=6.	!
.	12e	6e	.
.	12d#	.	.
.	12c#	4c#	.
.	12G#<	.	.
.	12eJ	.	.
*ped	*	*	*
!LO:TX:t=P:vertical slur from 2AAA to 2E:problem	!	!LO:N:vis=6.	!
2E/ 2AA/ 2AAA/	12eL	12e	.
!	!	!LO:N:vis=6.	!
.	12c#	6c#	.
.	12B	.	.
!	!	!LO:N:vis=6	!
.	12A<	12A<\	.
!	!	!LO:N:vis=6	!
.	12E<	6E<\	.
*Xped	*	*	*
.	.	.	.
.	12c#J)	.	.
=49	=49	=49	=49
*^	*	*	*
!	!	!	!LO:N:vis=3	!
1BB 1EE	12rbbbyy	2e/	(>12e\L	.
!	!LO:N:vis=6.	!	!	!LO:HP:a
.	6B<\	.	12B</	<
.	.	.	12A</	.
!	!LO:N:vis=6	!	!	!
.	12G#<\	.	12G#</	.
.	4E<\	.	12E</	.
.	.	.	12B</J	.
!	!	!	!LO:N:vis=3	!
.	.	2d#/	12d#\L	.
!	!LO:N:vis=6.	!	!	!
.	6B<\	.	12B</	.
.	.	.	12A</	.
!	!LO:N:vis=6	!	!	!
.	12G#<\	.	12G#</	.
!	!LO:N:vis=6	!	!	!
.	6E<\	.	12E</	.
.	.	.	12B</J	.
!!LO:LB:g=original
=50	=50	=50	=50	=50
!	!	!	!LO:N:vis=3	!
1EE^> 1EEE	12rbbbyy	2c#/	12c#\L	.
!	!LO:N:vis=6.	!	!	!
.	6A<\	.	12A</	.
.	.	.	12G#</	.
!	!LO:N:vis=6	!	!	!
.	12F#<\	.	12F#</	.
.	4D#<\	.	12D#</	.
.	.	.	12A</J	.
!	!	!	!LO:N:vis=3	!
.	.	2B</	12B<\L	.
!	!LO:N:vis=6.	!	!	!
.	6G#<\	.	12G#</	.
.	.	.	12F#</	.
!	!LO:N:vis=6	!	!	!
.	12E<\	.	12E</	.
!	!LO:N:vis=6	!	!	!
.	6Dn<\	.	12Dn</	.
.	.	.	12G#</J)	.
=51	=51	=51	=51	=51
!	!	!	!LO:N:vis=3	!
[>1EE [<1EEE	12rbbbyy	2B</	(>12B<\L	.
.	2ryy	.	12G#</	.
.	.	.	12F#</	[
.	.	.	12E</	.
.	.	.	12C#</	.
.	.	.	12G#</J	.
!	!	!	!LO:N:vis=3	!
.	.	2A</	12A<\L	.
!	!LO:N:vis=6.	!	!	!
.	6F#<\	.	12F#</	.
.	.	.	12E</	.
!	!LO:N:vis=6	!	!	!
.	12D#<\	.	12D#</	.
!	!LO:N:vis=6	!	!	!
.	6Cn<\	.	12Cn</	>
.	.	.	12F#</J	.
*	*	*v	*v	*
*v	*v	*	*
=52	=52	=52
*	*Xtuplet	*
2EE\] 2EEE\]	12G#<L	.
.	12BB<	.
.	12E<	.
.	12G#<	.
.	12A<	.
.	12c#<J	]
*ped	*	*
2r	12BL	.
.	12e	.
.	12g#	.
.	12b	.
.	12bb	.
*Xped	*	*
.	12cc#J	.
=53	=53	=53
4.f# 4.B	4.dd# 4.a	>
8c# 8B	8gg#) 8a	.
4d# 4B	4ff#) 4a	.
4r	4r	]
=54	=54	=54
*ped	*	*
N(>12EE\L	2ryy	.
12BB	.	.
12E	.	.
12G#J	.	.
*Xped	*	*
12A/L	.	.
12c#J	.	.
*ped	*	*
2rBByy	12BL	.
.	12e	.
.	12g#	.
.	12b	.
.	12bb	.
.	12cc#JN)	.
!!LO:LB:g=original
=55	=55	=55
4.B 4.D#	4.dd#\ 4.g#\	<
8A#X 8D#	8ee\ \8f##X	.
2c# 2D#	2dd#\ 2a#y\	.
.	.	[
=56	=56	=56
*ped	*	*
N(>12GG#L	2rddyy	.
12D#	.	.
12G#	.	.
12A#XJ	.	.
*Xped	*	*
12B/L	.	.
12e>/J	.	.
*ped	*	*
2rFyy	12d#/L	.
.	12g#	.
.	12b	.
.	12dd#	.
.	12gg#	.
*Xped	*	*
.	12g#JN)	.
=57	=57	=57
*^	*^	*
12E\L	1GG#	(>2g#	4c#	.
12F#	.	.	.	.
12E	.	.	.	.
!LO:N:vis=3	!	!	!	!
12B>	.	.	2.B/	.
12G#	.	.	.	.
12C#J	.	.	.	.
2D#/	.	4.g#	.	.
.	.	.	.	.
.	.	8a#X)	.	.
=58	=58	=58	=58	=58
12E\L	[<1GG#	(>2g#	4c#	.
12F#	.	.	.	.
12E	.	.	.	.
!LO:N:vis=3	!	!	!	!
12B>	.	.	2.B/	.
12G#	.	.	.	.
12C#J	.	.	.	.
[>2D#/	.	4.g#	.	.
.	.	.	.	.
.	.	8a#X)	.	.
*v	*v	*	*	*
=59	=59	=59	=59
*	*	*^	*
!	!	!	!LO:N:vis=3	!
[>1D#] [<1GG#]	12ryy	2b	12b\L	.
.	12ryy	.	12a#X\	.
!	!LO:N:vis=6.	!	!	!
.	12g#/	.	12g#\	.
!	!LO:N:vis=6	!	!	!
.	12d#/	.	12d#\	.
.	4B/	.	12B\	.
.	.	.	12g#\J	.
!	!	!	!LO:N:vis=3	!
.	.	2b	12b\L	.
.	12ryy	.	12a#\	.
.	.	.	.	.
!	!LO:N:vis=6.	!	!	!
.	12g#/	.	12g#\	.
!	!LO:N:vis=6	!	!	!
.	12d#/	.	12d#\	.
.	6B/	.	12B\	.
.	.	.	.	.
.	.	.	12g#\J	.
=60	=60	=60	=60	=60
!	!	!	!LO:N:vis=3	!
1D#] 1GG#]	6ryy	2b	(>12b\L	.
.	.	.	12a#X\	.
!	!LO:N:vis=6.	!	!	!
.	12g#/	.	12g#\	.
!	!LO:N:vis=6	!	!	!
.	12d#/	.	12d#\	.
.	4B/	.	12B\	.
.	.	.	12g#\J	.
!	!	!	!LO:N:vis=3	!
.	.	2b	12b\L	.
.	12ryy	.	12a#\	.
!	!LO:N:vis=6.	!	!	!
.	12g#/	.	12g#\	.
!	!LO:N:vis=6	!	!	!
.	12d#/	.	12d#\	.
.	6B/	.	12B\	.
.	.	.	12f#\J	.
!!LO:PB:g=original
=61	=61	=61	=61	=61
!	!	!LO:N:vis=3	!	!
1D# N(<1DD#]	2b/	12b\L	6ryy	.
.	.	12g#\	.	.
.	.	12f#]	6f#/	.
.	.	12c#\	.	.
.	.	12B\	4B/	.
.	.	12f#\J	.	.
!	!	!LO:N:vis=3	!	!
.	2b/	12b\L	.	.
.	.	12g#\	12ryy	.
.	.	12f#\	6f#/	.
.	.	12c#\	.	.
.	.	12B\	6B/	.
.	.	12f#\J	.	.
=62	=62	=62	=62	=62
!	!LO:N:vis=3	!	!	!
2Dn/ 2DDn/	12b/L	2b/	6ryy	.
.	12g#/	.	.	.
!	!	!	!LO:N:vis=4	!
.	12f#/	.	6ryy	.
.	12c#/	.	.	.
.	12B/	.	4ryy	.
.	12f#/J	.	.	.
!	!LO:N:vis=4.	!	!	!
[>2C#/ [<2CC#/	12a/L	4.a\	.	.
.	12f#/	.	12ryy	.
!	!	!	!LO:N:vis=6	!
.	12e#X/	.	12e#X\	.
!	!	!	!LO:N:vis=6	!
.	12c#/	.	12c#\	.
!	!	!	!LO:N:vis=6	!
.	12B/	.	6B\	.
.	.	8ryy	.	.
.	12f#/J	.	.	.
=63	=63	=63	=63	=63
!	!LO:N:vis=3	!	!	!
2C#/] 2CC#/]	12a/L	2a/	6ryy	.
.	12f#/	.	.	.
.	12en/	.	6en\	.
.	12B/	.	.	.
.	12A/	.	4A\	.
.	12e/J	.	.	.
!	!LO:N:vis=3	!	!	!
[>/2Cn [</2CCn	12a/L	2a/	.	.
.	12f#/	.	12ryy	.
.	12e/	.	6e\	.
.	12B/	.	.	.
.	12A/	.	6A\	.
.	12e/J	.	.	.
=64	=64	=64	=64	=64
!	!LO:N:vis=3	!	!	!
2CnX/] 2CCnX/]	12a/L	2a/	6ryy	.
.	12f#/	.	.	.
.	12e/	.	6e\	.
.	12B/	.	.	.
.	12A/	.	4A\	.
.	12e/J	.	.	.
!	!LO:N:vis=4.	!	!	!
[>/2BB# [>/2BBB#	12g#/L	4.g#\	.	.
.	12e/	.	12ryy	.
.	12d#/	.	6d#\	.
.	12A/	.	.	.
.	12G#/	.	6G#\	.
.	.	8ryy	.	.
.	12d#/J	.	.	.
=65	=65	=65	=65	=65
!	!	!LO:N:vis=3	!	!
2C#/ 2CC#/	2e	12e/L	6ryy	<
.	.	12d#	.	.
.	.	12c#	6c#\	.
.	.	12G#<	.	.
.	.	12E<	4E<\	.
.	.	12c#J	.	.
!	!	!LO:N:vis=3	!	!
2BB/ 2BBB/	2f#	12f#L	.	.
.	.	12d#	6d#\	.
.	.	12c#	.	.
!	!	!	!LO:N:vis=6	!
.	.	12B	12B\	.
!	!	!	!LO:N:vis=6	!
.	.	12F#<	6F#<\N)	.
.	.	12d#J	.	.
!!LO:LB:g=original
=66	=66	=66	=66	=66
!	!	!LO:N:vis=3	!	!
2BB/ (<2BBB/	2f#	12f#/L	12ryy	.
.	.	12d#	4d#	.
.	.	12c#	.	.
.	.	12B	.	.
.	.	12F#<	6F#<\	.
.	.	12d#J	.	.
2EE/ 2EEE/	4.g#\	12g#L	12ryy	.
.	.	12d#/	4d#	.
.	.	12c#	.	.
.	.	12B<	.	.
.	.	12G#<	6ryy	.
.	8ryy	.	.	.
.	.	12c#J	.	.
=67	=67	=67	=67	=67
!	!	!LO:N:vis=3	!	!
1DD# 1DDD#	2d#	12d#/L	12ryy	[
.	.	12B<	6B<\	f
.	.	12A#<X	.	.
!	!	!	!LO:N:vis=6	!
.	.	12G#<	12G#<\	.
.	.	12D#<	4D#<\	.
.	.	12B<J	.	.
!	!	!LO:N:vis=3	!	!
.	2d#	12d#/L	.	.
.	.	12A#<	6A#<\	.
.	.	12G#<	.	.
!	!	!	!LO:N:vis=6	!
.	.	12F##<X	12F##<\	.
.	.	12D#<	6D#<\	.
.	.	12A#<J	.	.
*v	*v	*	*	*
*	*v	*v	*
=68	=68	=68
2DD# 2GGG#)	12d#L	>
.	12B#X<	.
.	12A#X<	.
*ped	*	*
.	12G#<	.
.	12D#<	.
.	12G#<J	.
2rD	12B#<L	.
.	12d#	.
.	12g#	.
.	12b#X	.
.	12dd#	.
*Xped	*	*
.	12e#XJ	]
=69	=69	=69
4.A# 4.D#	4.f##X 4.c#	p>
8E#X 8D#	8b#X 8c#	.
4F##X 4D#	4a#X) 4c#	.
4rD	4r	]
=70	=70	=70
*ped	*	*
*Xtuplet	*	*
N(>12GGG#\L	2rddyy	.
12GG#	.	.
12D#	.	.
12G#	.	.
12A#X	.	.
*Xped	*	*
12c#J	.	.
*ped	*	*
2rBByy	12B#X<L	.
.	12d#	.
.	12g#	.
.	12b#X	.
.	12dd#	.
*Xped	*	*
.	12e#XJN)	.
!!LO:LB:g=original
=71|	=71|	=71|
*k[b-e-a-d-]	*k[b-e-a-d-]	*
!LO:TX:t=P:change of key signs should be invisible:problem	!	!
4.B- 4.C	(>4.g 4.en	<
8B- 8C	8dd- 8e	.
4B- 4C	4cc 4e)	.
4rD	4r	[
=72	=72	=72
*ped	*	*
N(>12FFL	2ryy	.
12C	.	.
12F	.	.
*Xped	*	*
12G	.	.
12A-	.	.
12d-J	.	.
*ped	*	*
2ryy	12c<\	.
.	12fL	.
.	12a-	.
.	12cc	.
.	12ff	.
*Xped	*	*
.	12fJN)	.
=73	=73	=73
*^	*^	*
(>\12D-L	1FF	(>2f	4B-	.
12E-	.	.	.	.
12D-	.	.	.	.
!LO:N:vis=3	!	!	!	!
12A-	.	.	2.A-</	.
12F	.	.	.	.
12BB-J	.	.	.	.
2C)	.	4.f	.	.
.	.	.	.	.
.	.	8g)	.	.
=74	=74	=74	=74	=74
(>12D-L\	[<1FF	(>2f	4B-	.
12E-	.	.	.	.
12D-	.	.	.	.
!LO:N:vis=3	!	!	!	!
12A-	.	.	2.A-</	.
12F	.	.	.	.
12BB-J	.	.	.	.
[>2C)	.	4.f	.	.
.	.	.	.	.
.	.	(>8g)	.	.
*v	*v	*	*	*
=75	=75	=75	=75
*	*^	*	*
!	!	!LO:N:vis=3	!	!
2C/] 2FF/]	2a-	/12a-L	3ryy	.
.	.	12g	.	.
.	.	12f	.	.
.	.	12c	.	.
.	.	12A-	6A-\	.
.	.	12fJ	.	.
!	!	!LO:N:vis=3	!	!
2C/ 2CC/	2a-	12a-/L	4ryy	.
.	.	12g	.	.
.	.	12f	.	.
.	.	12c	4ryy	.
.	.	(<12A-	.	.
.	.	[>12d-J	.	.
*	*	*v	*v	*
!!LO:LB:g=original
=76	=76	=76	=76
1C 1FF	12a-/L	4d-\] 4A-\)	.
.	12g	.	.
.	12f	.	.
.	12c	6rgggyy	.
.	12G<	.	.
.	12A-<J	4.A-<\	.
.	12a-/L	.	.
.	12g	.	.
.	12f	.	.
.	12c	.	.
.	.	8ryy	.
.	12G<	.	.
.	12A-<J	12ryy	.
=77	=77	=77	=77
*k[f#c#g#d#]	*k[f#c#g#d#]	*	*
!LO:TX:t=P:without validators:problem	!LO:N:vis=3	!	!
2C#/ (<2EE/	12g#/L	2g#/	.
.	12d#	.	.
.	12B#X	.	.
.	12c#	.	.
.	12F##<X	.	.
.	12G#<J	.	.
!	!LO:N:vis=3	!	!
2D#/ 2DD#/	12f##X/L	2f##X/	.
.	12d#	.	.
.	12B#	.	.
.	12c#	.	.
.	12G##<X	.	.
.	12A#X<J	.	.
=78	=78	=78	=78
*	*	*^	*
!LO:TX:t=P:vertical slur from 4CC# to 4E:problem	!	!LO:N:vis=3	!	!
4E/ 4CC#/)	2a#X/	12a#X\L	2ryy	<
.	.	12g#'>	.	.
.	.	12gn'>	.	.
8rD	.	12f#'>	.	.
.	.	12fn'>	.	.
8CCn/	.	.	.	.
.	.	[>12eJ'>	.	.
*ped	*	*	*	*
!LO:TX:t=P:vertical slur from 4.BBB to 4.F#:problem	!	!LO:N:vis=3	!	!
!LO:N:n=2:vis=4	!	!	!	!
4.F#/ 4.BBB/	2b	12b/L	6e\]	.
.	.	12an	.	.
.	.	12d#	6d#\	.
.	.	12c#	.	.
.	.	12B	6B\	.
8BB	.	.	.	.
.	.	12f##XJ)	.	[
=79	=79	=79	=79	=79
!	!	!	!LO:N:vis=3	!
(>1BB 1EE	12ryy	2b	(>12b\L	.
!	!LO:N:vis=6.	!	!	!
.	6g#/	.	12g#\	.
.	.	.	12f#\	.
!	!LO:N:vis=6	!	!	!
.	12e/	.	12e\	.
.	4B/	.	12B\	.
.	.	.	12g#\J	.
!	!	!	!LO:N:vis=3	!
.	.	2b	12b\L	.
!	!LO:N:vis=6.	!	!	!
.	6g#/	.	12g#\	.
.	.	.	12f#\	.
!	!LO:N:vis=6	!	!	!
.	12e/	.	12e\	.
*ped	*	*	*	*
.	6B/	.	12B\	.
.	.	.	12g#\J	.
!!LO:LB:g=original
=80	=80	=80	=80	=80
!	!	!	!LO:N:vis=3	!
4.G#	12ryy	2b	12b\L	.
!	!LO:N:vis=6.	!	!	!LO:HP:b=2
.	6g#/	.	12g#\	>
.	.	.	12f#\	.
.	4e/	.	12e\	.
*Xped	*	*	*	*
.	.	.	12B\	.
8F#	.	.	.	.
.	.	.	12g#\J	.
!	!	!	!LO:N:vis=3	!
2E/) 2AA/	12ryy	2cc#	12cc#\L	.
!	!LO:N:vis=6.	!	!	!
.	6g#/	.	12g#\	.
.	.	.	12f#\	.
!	!LO:N:vis=6	!	!	!
.	12e/	.	12e\	.
.	6c#/	.	12c#\	]
.	.	.	[12a\J	.
=81	=81	=81	=81	=81
2E/ 2EE/	4b/	12aL]	12ryy	.
!	!	!	!LO:N:vis=6.	!
.	.	12g#	6g#/	.
.	.	12f#	.	.
!	!LO:N:vis=6	!	!	!
.	12e	12e	4ryy	.
.	6B	12B	.	.
.	.	12g#J)	.	.
*ped	*	*	*	*
!LO:TX:t=P:vertical slur from 2CC# to 2E:problem	!	!LO:N:vis=3	!	!
[>2E/ [<2GG#/ [<2CC#/	(>2g#\	12g#L	12ryy	.
!	!	!	!LO:N:vis=6.	!
.	.	12e	6e/	.
.	.	12d#	.	.
.	.	12c#	4c#/	.
.	.	12G#	.	.
.	.	12eJ	.	.
*	*	*v	*v	*
=82	=82	=82	=82
!	!	!LO:N:vis=6	!
2E/] 2GG#/] 2CC#/]	12g#/L	12g#\	.
!	!	!LO:N:vis=6.	!
.	12e/	6e\	.
*Xped	*	*	*
.	.	.	.
.	12d#/	.	.
!	!	!LO:N:vis=6	!
.	12c#/	12c#\	.
.	12G#</	6G#<\	.
.	12e/J	.	.
*ped	*	*	*
!LO:TX:t=P:vertical slur from 2AAA to 2E:problem	!	!LO:N:vis=6	!
2E/ 2AA/ 2AAA/	12e/L	12e\	.
!	!	!LO:N:vis=6.	!
.	12c#/	6c#\	.
.	12B/	.	.
!	!	!LO:N:vis=6	!
.	12A</	12A<\	.
.	12E</	6E<\	.
*Xped	*	*	*
.	.	.	.
.	12c#/J)	.	.
=83	=83	=83	=83
*	*^	*	*
!	!LO:N:vis=3	!	!	!LO:HP:a
1BB 1EE	12eL	(>2e/	12rAyy	<
!	!	!	!LO:N:vis=6.	!
.	12B<	.	6B<	.
.	12A<	.	.	.
!	!	!	!LO:N:vis=6	!
.	12G#<	.	12G#<\	.
.	12E<	.	4E<\	.
.	12B<J	.	.	.
!	!LO:N:vis=3	!	!	!
.	12d#L	2d#/	.	.
!	!	!	!LO:N:vis=6.	!
.	12B<	.	6B<\	.
.	12A<	.	.	.
!	!	!	!LO:N:vis=6	!
.	12G#<	.	12G#<\	.
.	12E<	.	6E<\	.
.	12B<J	.	.	.
=84	=84	=84	=84	=84
!	!LO:N:vis=3	!	!	!
1EE^> 1EEE	12c#L	2c#/	12rAyy	.
!	!	!	!LO:N:vis=6.	!
.	12A<	.	6A<\	.
.	12G#<	.	.	.
!	!	!	!LO:N:vis=6.	!
.	12F#<	.	12F#<\	.
.	12D#<	.	4D#<\	.
.	12A<J	.	.	.
!	!LO:N:vis=3	!	!	!
.	12B<L	2B</	.	.
!	!	!	!LO:N:vis=6.	!
.	12G#<	.	6G#<\	.
.	12F#<	.	.	.
!	!	!	!LO:N:vis=6	!
.	12E<	.	12E<\	.
.	12Dn<	.	6Dn<\	[
.	12G#<J)	.	.	.
!!LO:LB:g=original
=85	=85	=85	=85	=85
!	!LO:N:vis=3	!LO:TX:t=P:the slur begins before the note:problem	!	!
1EE 1EEE	12B<L	(>2B</	12rAyy	.
!	!	!	!LO:N:vis=6.	!
.	12G#<	.	6ryy	.
.	12F#<	.	.	.
!	!	!	!LO:N:vis=6	!
.	12E<	.	12ryy	.
.	12C#<	.	4ryy	.
.	12G#<J	.	.	.
!	!LO:N:vis=3	!	!	!
.	12A<L	2A</	.	.
!	!	!	!LO:N:vis=6.	!
.	12F#<	.	6F#<\	.
.	12E<	.	.	.
!	!	!	!LO:N:vis=6	!
.	12D#<	.	12D#<\	.
.	12Cn<	.	6Cn<\	.
.	12F#<J	.	.	.
=86	=86	=86	=86	=86
!	!LO:N:vis=3	!	!	!
[>1EE [<1EEE	12A<L	2A</	12rAyy	>
.	12F#<	.	6ryy	.
.	12E<	.	.	.
.	12D#<	.	12ryy	.
.	12Cn<	.	4Cn<\	.
.	12F#<J	.	.	.
!	!LO:N:vis=3	!	!	!
.	12A<L	2A</	.	.
.	12F#<	.	6ryy	.
.	12E<	.	.	.
!	!	!	!LO:N:vis=6	!
.	12D#<	.	12D#<\	.
.	12Cn<	.	6Cn<\	.
.	12F#<J)	.	.	.
*	*v	*v	*	*
*	*v	*v	*
=87	=87	=87
1EE] 1EEE]	(>12A<L	.
.	12F#<	.
.	12E<	.
.	12D#<	.
*ped	*	*
.	12Cn<	]
.	12F#<J	.
.	12A<L	.
.	12cn<	.
.	12d#X	pp
.	12f#	.
.	12a	.
.	12ccnJ	.
=88	=88	=88
1rF	12gg#L	.
.	12ff#	.
.	12dd#	.
.	12ccn	.
.	12a	.
.	12f#J	.
.	12g#L	.
.	12f#	.
.	12d#	.
.	12cn	.
.	12A<	.
.	12F#<J	.
=89	=89	=89
1rBB	12G#<L	.
.	12F#<	.
.	12Cn<	.
.	12D#<	.
.	12F#<	.
.	12A<J	.
.	8f#L	.
.	8e	.
.	8.d#	.
.	16dd#Jk	.
!!LO:PB:g=original
=90	=90	=90
4rD	4dd#\)	.
*Xped	*	*
2F# 2Cn	(>2d# 2A<	.
4E 4C	4e 4A<	.
=91	=91	=91
4D#\ 4Cn\	4f#) 4A<	.
4rD	4r	.
2rD	(>8f#L	<
.	8e	.
*ped	*	*
.	8.d#	.
.	16dd#Jk	[[
=92	=92	=92
4rD	4dd#\)	.
2BB#X\	(>2d# 2A< 2F#<	<
*Xped	*	*
.	.	.
4AA#X\	4d# 4A#X< 4F#<	.
=93	=93	=93
4GG#\	4d#) 4B#X< 4F#<	.
4rD	(>/4b#X	.
4rD	4B#X	.
N(>4A## 4E#X\ 4GG#\	4c##Xt	.
.	8qqB##X/L	.
.	8qqc##/J	.
=94	=94	=94
4F#\ 4GG#\	4d#) 4B#<XN)	.
4rBB	(>4g#	.
4rBB	4G#</	.
!	!LO:TX:t=P:trill directly above the note:problem	!
[<4C##X\ 4GG#\	4A#<T>/ 4E#X</	.
!	!LO:TX:t=P:incorrect display:problem	!
.	16qqG##<X/LL	.
.	16qqA#</JJ	.
=95	=95	=95
*^	*	*
/4C##X]	(<2GG#\	(>2B#X</ 2F#</	.
4D#/	.	.	.
2E\	2GGn\	4cn</) 4Gn</	.
.	.	4c#X</ (<4A#X</	.
*v	*v	*	*
!!LO:LB:g=original
=96	=96	=96
4FFn/	4dn</ 4B-X</) 4Fn</	.
4EE-X/	4fn 4cn< 4A<	.
4DD-X/	4b-X 4f 4B-<	.
!	!LO:S:s=3:note:problem:note-level slur	!
!	!LO:S:s=1:note:problem:note-level slur	!
!	!LO:S:s=2:note:problem:note-level slur	!
(</4CC-X	(<&(<4a-X (>4f (<4d-X	.
!	!LO:S:s=3:note:problem:note-level slur	!
!	!LO:S:s=1:note:problem:note-level slur	!
!	!LO:S:s=2:note:problem:note-level slur	!
4qqBBBn/)	4qqg#X) 4qqe#X) 4qqc#X/&)	.
=97	=97	=97
*	*^	*
*	*	*^	*
4AAA#X	2cc# 2e)	2rddddyy	4f#\	.
!	!	!	!LO:TX:t=dim. _:problem:dynamics with extention lines	!LO:HP:i:t=dim.
4GGG#	.	.	2.b\	>
*ped	*	*	*	*
2GGGn	2ee	4cc#/	.	.
*Xped	*	*	*	*
.	.	4aa#X\ 4a#X	.	.
*	*v	*v	*v	*
=98	=98	=98
*ped	*	*
2FFF#)	2ccc)# 2ee 2a	]
*Xped	*	*
2rD	4r	<
*ped	*	*
.	(>8.f#L	.
.	16dd#Jk	[[
=99	=99	=99
*k[f#c#g#d#a#]	*k[f#c#g#d#a#]	*
*tuplet	*	*
!LO:TX:t=P:note-head-side tuplet number:problem	!	!LO:DY:rj
(>12BBB/L	2dd#	p
12FF#	.	.
12F#J	.	.
*Xtuplet	*	*
12d#\L 12B\ 12D#\	.	.
*Xped	*	*
12rD	.	.
(>12FF#J)	.	.
*ped	*	*
12BBB/L	8.bL	[
12FF#	.	.
12F#J	.	.
.	16cc#k	.
12d#\L 12B\ 12D#\	8.dd#	.
12rD	.	.
*Xped	*	*
12FF#J)	.	.
.	16eeJk	.
=100	=100	=100
*ped	*	*
(>12BBB/L	4dd#	.
12FF#	.	.
12EJ	.	.
12e\L) 12A#\ 12F#\	4cc#	.
*Xped	*	*
12rD	.	.
(>12FF#J	.	.
*ped	*	*
12BBB/L	8eeL	.
12FF#	.	.
*	*tuplet	*
!	!LO:TX:t=P:note-head-side tuplet number:problem	!
.	24ff#L	.
12C#J	24ee	.
.	24dd#JJ	.
12e\L) 12A#\ 12F#\	8.eeL	.
*Xped	*	*
12rD	.	.
(>12FF#J	.	.
.	16ff#Jk	.
!!LO:LB:g=original
=101	=101	=101
*^	*	*
*ped	*	*	*
12BBB/L	2rEEEEyy	2dd#	.
12FF#	.	.	.
12F#J	.	.	.
12d#\L) 12B\ 12D#\	.	.	.
*Xped	*	*	*
12rD	.	.	.
[12FF#J	.	.	.
*ped	*	*	*
4AAA#\	(>12FF#/L]	4cc#	.
.	12EE#X	.	.
.	12AA#J	.	.
*Xped	*	*	*
.	.	.	.
12c#\L) 12F##X\ 12D#\	4rGGGGyy	4dd#	.
12rD	.	.	.
(<12DD#J	.	.	.
*v	*v	*	*
=102	=102	=102
*ped	*	*
12GGG#/L	4b	.
12GG#	.	.
12DnJ	.	.
*Xped	*	*
.	.	.
12B/L) 12E#X/ 12C#/	8.a#/L	.
12rD	.	.
(<12CC#J	.	.
.	16bJk	.
*ped	*	*
12FFF#/L	4cc#	.
12FF#	.	.
12F#J	.	.
*	*Xtuplet	*
*	*cue	*
*	*rscale:4	*
12enL) 12A#	60f#\LLL	.
.	60g#	.
.	60f#	.
.	60e#X	.
.	60f#	.
12rD	60g#	.
.	60a#	.
.	60b	.
.	60cc#	.
*Xped	*	*
.	60dd#	.
(>12FF#J	60ee#y	.
.	60ff#	.
.	60aa#	.
.	60gg#	.
.	60eenJJJ	.
*	*Xcue	*
*	*rscale:1	*
=103	=103	=103
*	*^	*
12BBB/L	2dd#	4r	.
12FF#	.	.	.
12F#J	.	.	.
12d#\L) 12B\ 12D#\	.	4g#	.
*Xped	*	*	*
12rD	.	.	.
(>12FF#J	.	.	.
*ped	*	*	*
12BBB/L	8.bL	2f#	.
12FF#	.	.	.
12F#J	.	.	.
.	16cc#k	.	.
12d#\L) 12B\ 12D#\	8.dd#	.	.
12rD	.	.	.
*Xped	*	*	*
(>12FF#J	.	.	.
.	8qff#/	.	.
.	16eeJk	.	.
=104	=104	=104	=104
*ped	*	*	*
12BBB/L	4dd#	4f#	.
12FF#	.	.	.
.	.	.	>
12F#J	.	.	.
!	!LO:TX:a:t=P:lack of beaming 8.cc#L and 16dd#J:problem	!	!
12eL) 12A#	8.cc#L	4g#	.
*Xped	*	*	*
12rD	.	.	.
(>12FF#J	.	.	.
.	16dd#Jk	.	.
*ped	*	*	*
12BBB/L	4ee	4f#	.
12FF#	.	.	.
12C#J	.	.	.
.	8qqee/	.	.
.	8qqee/L	.	.
.	8qqff#/	.	.
.	8qqee/	.	.
.	8qqdd#/J	.	.
!	!LO:N:vis=4.	!	!
12eL) 12A# 12F#	8.ee	4g#	.
12rD	.	.	.
*Xped	*	*	*
.	.	.	.
(>12FF#J	.	.	.
!	!LO:N:vis=8	!	!
.	16ff#Jk	.	.
!!LO:LB:g=original
=105	=105	=105	=105
*^	*	*	*
*ped	*Xtuplet	*	*	*
!	!	!LO:TX:t=P:the slur has no ending:problem	!	!
12rBB	12BBBL	2dd# 2an 2d#)	2ryy	.
12ryy	12FF#	.	.	.
!LO:N:vis=6	!	!	!	!
12BB/	[>12BBJ	.	.	.
12F#L	4BB]	.	.	.
12.c#	.	.	.	.
24BJk	.	.	.	.
2rgyy	4B) 4E	(>8dd#L	4g# 4e	<
.	.	8cc#	.	.
*ped	*	*	*	*
.	4rD	8.b	4rdyy	.
.	.	16bbJk	.	[[
*v	*v	*	*	*
*	*v	*v	*
=106	=106	=106
4rD	4bb\)	>
2EE\	(>/2c# 2B/ 2G#</	.
*Xped	*	*
.	.	.
4FF#\	4d# 4B 4F#<	]]
=107	=107	=107
4.E\ 4.GG#\	8.B<L	.
.	16eJk	.
!	!LO:N:vis=4	!
.	8e)	.
8rD	8r	.
2rD	(>8dd#L	<
.	8cc#	.
.	8.b	.
*ped	*	*
.	.	.
.	16bbJk	[[
=108	=108	=108
4rD	4bb)	f
2GG#\	(>2e 2B< 2E<	.
*Xped	*	*
.	.	.
4FF#\	4f# 4dn 4B< 4F#<	.
=109	=109	=109
*ped	*	*
4EE#X\	4g#) 4c# 4B 4G#<	.
4rD	(>4gg#	.
4rD	4g#/	.
(>4F# 4E	4a#t 4f# 4c#	.
.	16qqg#/LL	.
.	16qqa#/JJ	.
=110	=110	=110
4F# 4D#	4b 4f# 4B)	.
4B 4G# 4C#)	(>4ee\	.
4rD	4e	.
4D#\ 4C#\	4f##Xt 4d# 4A#<	.
.	16qqe#X/LL	.
.	16qqf##/JJ	.
!!LO:LB:g=original
=111	=111	=111
*	*^	*
(<4BB#X\	4g# 4d# 4G#<	4ryy	.
4BBn\	8.a#L	4e#X 4c#	.
!	!LO:TX:t=P:missing beaming 8.a#L and 16g#J:problem	!	!
!	!LO:TX:t=dim. _:problem:dynamics with extention lines 	!	!LO:HPi:t=dim.
.	.	.	>
.	16g#Jk	.	.
4AA#\	4f# 4c#< 4F#<	2ryy	.
4AAn\	4d# 4cn< 4F#<	.	.
*	*v	*v	*
=112	=112	=112
2GGn\	4e 4cn 4Gn<	.
.	4c##X 4B 4E#X<	.
.	.	.
2FF#\	4d#/) 4B/ 4F#</	.
.	.	]
.	4A#</ 4En</	.
=113	=113	=113
*Xtuplet	*	*
12BBB\L	/2B< 2D#</	pp
12FF#	.	.
12BB	.	.
12AA#	.	.
12GG#	.	.
12FF#J	.	.
12BB\L	(>2g# 2d# 2F#<	.
12AA#	.	.
12BB	.	.
12AA#	.	.
12GG#	.	.
12FF#J	.	.
=114	=114	=114
*^	*^	*
1F#	12C#L	2g#	1e 1A#	.
.	12BB#X	.	.	.
.	12D#	.	.	.
.	12C#	.	.	.
.	12GG#	.	.	.
.	12FF#J	.	.	.
.	12C#L	2a#	.	.
.	12BB#	.	.	.
.	12D#	.	.	.
.	12C#	.	.	.
.	12GG#	.	.	.
.	12FF#J	.	.	.
=115	=115	=115	=115	=115
1F#	12BBL	4a#	1d#< 1B<	.
.	12AA#X	.	.	.
.	12BB	.	.	.
.	12AA#	4b/	.	.
.	12GG#	.	.	.
.	12FF#J	.	.	.
.	12BBL	4d#	.	.
.	12AA#	.	.	.
.	12BB	.	.	.
.	.	8qd#/	.	.
.	.	8qqd#/L	.	.
.	.	8qqe/	.	.
.	.	8qqd#/	.	.
.	.	8qqc##XJ/	.	.
.	.	8qd#/	.	.
.	.	.	.	.
.	12AA#	8.a#L	.	.
.	12GG#	.	.	.
.	12FF#J	.	.	.
.	.	16g#Jk	.	.
!!LO:LB:g=original
=116	=116	=116	=116	=116
1A# 1F#	12C#L	2g#	1e	.
.	12BB#X	.	.	.
.	12D#	.	.	.
.	12C#	.	.	.
.	12GG#	.	.	.
.	12FF#J	.	.	.
.	12C#L	4f#	.	.
.	12BB#	.	.	.
.	12D#	.	.	.
.	12C#	8.a#L	.	.
.	12GG#	.	.	.
.	12FF#J	.	.	.
.	.	16bJk	.	.
*v	*v	*	*	*
=117	=117	=117	=117
12F#L	4b#X	2.e 2.A#	.
12G#	.	.	.
12F#	.	.	.
12E#X	2cc#	.	.
12F#	.	.	.
12C#J	.	.	.
12En/L	.	.	.
12F#	.	.	.
12E	.	.	.
12GG#	8.dd#L	4rg	.
12C#	.	.	.
12AA#J	.	.	.
.	16eeJk	.	.
=118	=118	=118	=118
*	*	*^	*
12GGn/L	[2ee	1a#	[2c#\	.
12FF#	.	.	.	.
12GG#X	.	.	.	.
12FF#	.	.	.	.
12GGn	.	.	.	.
12FF#J	.	.	.	.
12GG#X/L	4..ee]	.	4..c#\]	.
12FF#	.	.	.	.
12GGn	.	.	.	.
12FF#	.	.	.	.
*ped	*	*	*	*
12D#	.	.	.	.
12FF#J	.	.	.	.
.	16dd#	.	16d#\	.
*	*v	*v	*v	*
=119	=119	=119
4BBB/)	4dd#/) 4b/ 4d#/	.
*Xped	*	*
4rD	4r	.
.	.	>
2BB\ 2GGn\ 2BBB\	2d# 2B< 2Gn< 2D#<	.
=120	=120	=120
1BB;< 1FF# 1BBB	1d#; 1B< 1F#< 1D#<	]
==	==	==
*-	*-	*-
!!!system-decoration: {(s1,s2)}
!!!RDF**kern: N = linked
!!!RDF**kern: > = above
!!!RDF**kern: < = below
!!!RDF**dynam: < = "cresc." fontstyle="italic"
!!!RDF**dynam: > = "dim." fontstyle="italic"
!!!ENC: Jędrzej Mróz
!!!END: 2019-10-24
!!!EED: Emilia Ziętek
!!!EST: 2019-10-31
!!!rism-genre: Sonata
!!!rism-key: B minor
!!!rism-opus: op. 58
!!!rism-title: Sonata in B minor op. 58
!!!rism-permalink: https://opac.rism.info/search?id=1001024762&View=rism
